; generated by PrusaSlicer 2.6.0+win64 on 2023-07-06 at 11:37:43 UTC


;
;
; 

; external perimeters extrusion width = 0.45mm
; perimeters extrusion width = 0.45mm
; infill extrusion width = 0.45mm
; solid infill extrusion width = 0.45mm
; top infill extrusion width = 0.40mm
; first layer extrusion width = 0.42mm

; external perimeters extrusion width = 0.45mm
; perimeters extrusion width = 0.45mm
; infill extrusion width = 0.45mm
; solid infill extrusion width = 0.45mm
; top infill extrusion width = 0.40mm
; first layer extrusion width = 0.42mm

; external perimeters extrusion width = 0.45mm
; perimeters extrusion width = 0.45mm
; infill extrusion width = 0.45mm
; solid infill extrusion width = 0.45mm
; top infill extrusion width = 0.40mm
; first layer extrusion width = 0.42mm

; external perimeters extrusion width = 0.45mm
; perimeters extrusion width = 0.45mm
; infill extrusion width = 0.45mm
; solid infill extrusion width = 0.45mm
; top infill extrusion width = 0.40mm
; first layer extrusion width = 0.42mm

M73 P0 R20
M73 Q0 S20
M201 X1000 Y1000 Z200 E5000 ; sets maximum accelerations, mm/sec^2
M203 X200 Y200 Z12 E120 ; sets maximum feedrates, mm / sec
M204 S1250 T1250 ; sets acceleration (S) and retract acceleration (R), mm/sec^2
M205 X8.00 Y8.00 Z0.40 E4.50 ; sets the jerk limits, mm/sec
M205 S0 T0 ; sets the minimum extruding and travel feed rate, mm/sec
;TYPE:Custom
M862.3 P "MK3S" ; printer model check
M862.1 P0.4 ; nozzle diameter check
M115 U3.12.2 ; tell printer latest fw version
G90 ; use absolute coordinates
M83 ; extruder relative mode
M104 S215 ; set extruder temp
M140 S60 ; set bed temp
M190 S60 ; wait for bed temp
M109 S215 ; wait for extruder temp
G28 W ; home all without mesh bed level
G80 ; mesh bed leveling

G1 Z0.2 F720
G1 Y-3 F1000 ; go outside print area
G92 E0
G1 X60 E9 F1000 ; intro line
G1 X100 E12.5 F1000 ; intro line

G92 E0
M221 S95

; Don't change E values below. Excessive value can damage the printer.
M907 E430 ; set extruder motor current
G21 ; set units to millimeters
G90 ; use absolute coordinates
M83 ; use relative distances for extrusion
M900 K0.05 ; Filament gcode LA 1.5
M900 K30 ; Filament gcode LA 1.0
M107
;LAYER_CHANGE
;Z:0.2
;HEIGHT:0.2
;BEFORE_LAYER_CHANGE
G92 E0.0
;0.2


G1 E-.8 F2100
G1 Z.4 F720
;AFTER_LAYER_CHANGE
;0.2
G1 X109.798 Y92.732 F10800
G1 Z.2 F720
G1 E.8 F2100
M204 S800
;TYPE:Skirt/Brim
;WIDTH:0.42
G1 F1200
G1 X110.244 Y92.35 E.01841
G1 X110.751 Y92.054 E.01841
G1 X111.302 Y91.854 E.01838
G1 X112.129 Y91.746 E.02615
G1 X138.119 Y91.757 E.8149
G1 X138.785 Y91.879 E.02123
M73 P0 R19
G1 X139.756 Y92.35 E.03384
G1 X140.202 Y92.732 E.01841
G1 X140.674 Y93.317 E.02357
G1 X141.199 Y94.152 E.03093
G1 X141.682 Y95.192 E.03595
G1 X142.06 Y96.456 E.04137
G1 X142.225 Y97.59 E.03593
G1 X142.211 Y112.569 E.46966
G1 X141.983 Y113.869 E.04138
G1 X141.623 Y114.957 E.03593
G1 X141.032 Y116.137 E.04138
G1 X140.202 Y117.268 E.04399
G1 X139.756 Y117.65 E.01841
G1 X139.249 Y117.946 E.01841
G1 X138.698 Y118.146 E.01838
G1 X137.871 Y118.254 E.02615
G1 X112.129 Y118.254 E.80712
G1 X111.302 Y118.146 E.02615
G1 X110.751 Y117.946 E.01838
G1 X110.244 Y117.65 E.01841
G1 X109.736 Y117.203 E.02122
G1 X108.968 Y116.137 E.04119
G1 X108.377 Y114.957 E.04138
G1 X108.017 Y113.869 E.03593
G1 X107.789 Y112.569 E.04138
G1 X107.751 Y98.083 E.4542
G1 X107.908 Y96.613 E.04635
M73 P1 R19
M73 Q1 S20
G1 X108.318 Y95.192 E.04637
G1 X108.968 Y93.863 E.04639
G1 X109.763 Y92.78 E.04212
M204 S1000
G1 X110.065 Y93.001 F10800
M204 S800
G1 F1200
G1 X110.915 Y92.394 E.03275
G1 X111.403 Y92.218 E.01627
G1 X112.129 Y92.123 E.02296
G1 X138.085 Y92.133 E.81383
G1 X138.684 Y92.242 E.01909
G1 X139.533 Y92.654 E.02959
G1 X139.99 Y93.057 E.0191
G1 X140.45 Y93.655 E.02366
G1 X140.937 Y94.462 E.02955
G1 X141.441 Y95.634 E.04
G1 X141.693 Y96.543 E.02958
G1 X141.849 Y97.612 E.03387
G1 X141.837 Y112.525 E.46759
G1 X141.616 Y113.782 E.04002
M73 Q1 S19
G1 X141.277 Y114.808 E.03388
G1 X140.705 Y115.949 E.04002
G1 X139.928 Y117.009 E.04121
G1 X139.085 Y117.606 E.03239
G1 X138.597 Y117.782 E.01627
G1 X137.871 Y117.877 E.02296
G1 X112.129 Y117.877 E.80712
G1 X111.403 Y117.782 E.02296
G1 X110.915 Y117.606 E.01627
G1 X110.467 Y117.346 E.01624
G1 X110.01 Y116.943 E.0191
G1 X109.295 Y115.949 E.03839
G1 X108.723 Y114.808 E.04002
G1 X108.384 Y113.782 E.03388
G1 X108.163 Y112.525 E.04002
G1 X108.128 Y98.083 E.45282
G1 X108.28 Y96.678 E.04431
G1 X108.672 Y95.32 E.04432
G1 X109.295 Y94.051 E.04432
G1 X110.029 Y93.05 E.03892
M204 S1000
; printing object Edit LZI_04-07-23_002_1mm id:0 copy 0
;WIPE_START
G1 F8640
G1 X110.915 Y92.394 E-.25455
G1 X111.403 Y92.218 E-.11978
G1 X112.129 Y92.123 E-.16906
G1 X113.24 Y92.123 E-.25661
;WIPE_END
G1 Z.6 F720
G1 X137.758 Y108.964 F10800
G1 Z.2 F720
G1 E.8 F2100
M204 S800
;TYPE:Perimeter
;WIDTH:0.419999
G1 F1200
G1 X138.075 Y109.494 E.01936
G1 X138.319 Y110.06 E.01933
G1 X138.557 Y110.948 E.02883
G1 X138.611 Y111.51 E.0177
G1 X138.611 Y111.751 E.00756
G1 X138.584 Y112.373 E.01952
G1 X138.495 Y112.869 E.0158
G1 X138.328 Y113.41 E.01775
G1 X138.004 Y114.135 E.0249
G1 X137.673 Y114.635 E.0188
G1 X129.815 Y114.635 E.24638
G1 X129.588 Y114.308 E.01248
G1 X129.32 Y113.81 E.01773
G1 X129.111 Y113.283 E.01778
G1 X128.964 Y112.735 E.01779
G1 X128.883 Y112.175 E.01774
G1 X128.866 Y111.616 E.01754
G1 X128.967 Y110.757 E.02712
G1 X129.109 Y110.225 E.01726
G1 X129.447 Y109.439 E.02683
G1 X129.83 Y108.866 E.02161
G1 X137.682 Y108.866 E.24619
G1 X137.721 Y108.917 E.00201
M204 S1000
G1 X138.079 Y108.767 F10800
M204 S800
;TYPE:External perimeter
G1 F1200
G1 X138.417 Y109.335 E.02072
G1 X138.68 Y109.952 E.02103
G1 X138.93 Y110.893 E.03053
G1 X138.988 Y111.51 E.01943
G1 X138.988 Y112.211 E.02198
G1 X138.901 Y112.811 E.01901
G1 X138.744 Y113.399 E.01908
G1 X138.38 Y114.244 E.02885
G1 X138.089 Y114.717 E.01741
G1 X137.844 Y115.012 E.01202
G1 X129.725 Y115.012 E.25457
G1 X129.589 Y114.969 E.00447
G1 X129.266 Y114.506 E.0177
G1 X128.977 Y113.969 E.01912
G1 X128.752 Y113.401 E.01916
G1 X128.595 Y112.811 E.01914
G1 X128.506 Y112.208 E.01911
G1 X128.489 Y111.6 E.01907
G1 X128.595 Y110.686 E.02885
G1 X128.752 Y110.101 E.01899
G1 X129.114 Y109.259 E.02874
G1 X129.595 Y108.538 E.02718
G1 X129.668 Y108.488 E.00277
G1 X137.839 Y108.489 E.2562
G1 X138.04 Y108.721 E.00962
M204 S1000
G1 X138.009 Y109.161 F10800
;WIPE_START
G1 F8640
G1 X138.417 Y109.335 E-.16637
G1 X138.68 Y109.952 E-.15487
G1 X138.93 Y110.893 E-.22482
G1 X138.988 Y111.51 E-.1431
G1 X138.988 Y111.99 E-.11084
;WIPE_END
G1 Z.6 F720
G1 X138.274 Y110.504 F10800
G1 Z.2 F720
G1 E.8 F2100
M204 S800
;TYPE:Solid infill
;WIDTH:0.431365
G1 F1200
G1 X136.976 Y109.206 E.05929
G1 X136.427 Y109.206 E.01773
G1 X138.222 Y111.001 E.08199
G1 X138.272 Y111.342 E.01113
G1 X138.272 Y111.6 E.00833
G1 X135.877 Y109.206 E.10938
G1 X135.328 Y109.205 E.01773
G1 X138.272 Y112.149 E.13448
G1 X138.203 Y112.63 E.0157
G1 X134.779 Y109.205 E.15642
G1 X134.229 Y109.205 E.01776
G1 X138.091 Y113.067 E.17641
G1 X137.936 Y113.462 E.01371
G1 X133.68 Y109.205 E.19443
G1 X133.13 Y109.205 E.01776
M73 Q2 S19
G1 X137.771 Y113.846 E.21199
G1 X137.57 Y114.194 E.01298
M73 P2 R19
G1 X132.581 Y109.205 E.22789
G1 X132.032 Y109.205 E.01773
G1 X137.122 Y114.295 E.2325
G1 X136.572 Y114.295 E.01776
G1 X131.482 Y109.205 E.2325
G1 X130.933 Y109.205 E.01773
G1 X136.023 Y114.295 E.2325
G1 X135.474 Y114.295 E.01773
G1 X130.383 Y109.205 E.23252
G1 X130.011 Y109.205 E.01202
G1 X129.94 Y109.311 E.00412
G1 X134.924 Y114.295 E.22766
G1 X134.375 Y114.295 E.01773
G1 X129.727 Y109.647 E.21231
G1 X129.562 Y110.031 E.0135
G1 X133.826 Y114.295 E.19477
G1 X133.276 Y114.295 E.01776
G1 X129.407 Y110.425 E.17675
G1 X129.296 Y110.864 E.01463
G1 X132.727 Y114.295 E.15672
G1 X132.178 Y114.295 E.01773
G1 X129.238 Y111.356 E.13427
G1 X129.206 Y111.631 E.00894
G1 X129.214 Y111.881 E.00808
G1 X131.628 Y114.295 E.11027
G1 X131.079 Y114.295 E.01773
G1 X129.271 Y112.488 E.08256
G1 X129.297 Y112.666 E.00581
G1 X129.449 Y113.215 E.0184
G1 X130.699 Y114.465 E.0571
M204 S1000
; stop printing object Edit LZI_04-07-23_002_1mm id:0 copy 0
; printing object Edit LZI_04-07-23_002_1mm id:3 copy 0
;WIPE_START
G1 F8640
G1 X129.449 Y113.215 E-.40818
G1 X129.297 Y112.666 E-.13153
G1 X129.271 Y112.488 E-.04154
G1 X129.941 Y113.158 E-.21875
;WIPE_END
G1 Z.6 F720
G1 X137.758 Y95.464 F10800
G1 Z.2 F720
G1 E.8 F2100
M204 S800
;TYPE:Perimeter
;WIDTH:0.419999
G1 F1200
G1 X138.075 Y95.994 E.01936
G1 X138.319 Y96.56 E.01933
G1 X138.557 Y97.448 E.02883
G1 X138.611 Y98.01 E.0177
G1 X138.611 Y98.251 E.00756
G1 X138.584 Y98.873 E.01952
G1 X138.495 Y99.369 E.0158
G1 X138.328 Y99.91 E.01775
G1 X138.004 Y100.635 E.0249
G1 X137.673 Y101.135 E.0188
G1 X129.815 Y101.135 E.24638
G1 X129.588 Y100.808 E.01248
G1 X129.32 Y100.31 E.01773
G1 X129.111 Y99.783 E.01778
G1 X128.964 Y99.235 E.01779
G1 X128.883 Y98.675 E.01774
G1 X128.866 Y98.116 E.01754
G1 X128.967 Y97.257 E.02712
G1 X129.109 Y96.725 E.01726
G1 X129.447 Y95.939 E.02683
G1 X129.83 Y95.366 E.02161
G1 X137.682 Y95.366 E.24619
G1 X137.721 Y95.417 E.00201
M204 S1000
G1 X138.079 Y95.267 F10800
M204 S800
;TYPE:External perimeter
G1 F1200
G1 X138.417 Y95.835 E.02072
G1 X138.68 Y96.452 E.02103
G1 X138.93 Y97.393 E.03053
G1 X138.988 Y98.01 E.01943
G1 X138.988 Y98.711 E.02198
G1 X138.901 Y99.311 E.01901
G1 X138.744 Y99.899 E.01908
G1 X138.38 Y100.744 E.02885
G1 X138.089 Y101.217 E.01741
G1 X137.844 Y101.512 E.01202
G1 X129.725 Y101.512 E.25457
G1 X129.589 Y101.469 E.00447
G1 X129.266 Y101.006 E.0177
G1 X128.977 Y100.469 E.01912
G1 X128.752 Y99.901 E.01916
G1 X128.595 Y99.311 E.01914
G1 X128.506 Y98.708 E.01911
G1 X128.489 Y98.1 E.01907
G1 X128.595 Y97.186 E.02885
G1 X128.752 Y96.601 E.01899
G1 X129.114 Y95.759 E.02874
G1 X129.595 Y95.038 E.02718
G1 X129.668 Y94.988 E.00277
G1 X137.839 Y94.989 E.2562
G1 X138.04 Y95.221 E.00962
M204 S1000
G1 X138.009 Y95.661 F10800
;WIPE_START
G1 F8640
G1 X138.417 Y95.835 E-.16637
G1 X138.68 Y96.452 E-.15487
G1 X138.93 Y97.393 E-.22482
G1 X138.988 Y98.01 E-.1431
G1 X138.988 Y98.49 E-.11084
;WIPE_END
G1 Z.6 F720
G1 X138.274 Y97.004 F10800
G1 Z.2 F720
G1 E.8 F2100
M204 S800
;TYPE:Solid infill
;WIDTH:0.431365
G1 F1200
G1 X136.976 Y95.706 E.05929
G1 X136.427 Y95.706 E.01773
G1 X138.222 Y97.501 E.08199
G1 X138.272 Y97.842 E.01113
G1 X138.272 Y98.1 E.00833
G1 X135.877 Y95.706 E.10938
G1 X135.328 Y95.705 E.01773
G1 X138.272 Y98.649 E.13448
G1 X138.203 Y99.13 E.0157
G1 X134.779 Y95.705 E.15642
G1 X134.229 Y95.705 E.01776
G1 X138.091 Y99.567 E.17641
G1 X137.936 Y99.962 E.01371
G1 X133.68 Y95.705 E.19443
G1 X133.13 Y95.705 E.01776
G1 X137.771 Y100.346 E.21199
G1 X137.57 Y100.694 E.01298
G1 X132.581 Y95.705 E.22789
G1 X132.032 Y95.705 E.01773
G1 X137.122 Y100.795 E.2325
G1 X136.572 Y100.795 E.01776
G1 X131.482 Y95.705 E.2325
G1 X130.933 Y95.705 E.01773
M73 Q3 S19
G1 X136.023 Y100.795 E.2325
G1 X135.474 Y100.795 E.01773
M73 P3 R19
G1 X130.383 Y95.705 E.23252
G1 X130.011 Y95.705 E.01202
G1 X129.94 Y95.811 E.00412
G1 X134.924 Y100.795 E.22766
G1 X134.375 Y100.795 E.01773
G1 X129.727 Y96.147 E.21231
G1 X129.562 Y96.531 E.0135
G1 X133.826 Y100.795 E.19477
G1 X133.276 Y100.795 E.01776
G1 X129.407 Y96.925 E.17675
G1 X129.296 Y97.364 E.01463
G1 X132.727 Y100.795 E.15672
G1 X132.178 Y100.795 E.01773
G1 X129.238 Y97.856 E.13427
G1 X129.206 Y98.131 E.00894
G1 X129.214 Y98.381 E.00808
G1 X131.628 Y100.795 E.11027
G1 X131.079 Y100.795 E.01773
G1 X129.271 Y98.988 E.08256
G1 X129.297 Y99.166 E.00581
G1 X129.449 Y99.715 E.0184
G1 X130.699 Y100.965 E.0571
M204 S1000
; stop printing object Edit LZI_04-07-23_002_1mm id:3 copy 0
; printing object Edit LZI_04-07-23_002_1mm id:1 copy 0
;WIPE_START
G1 F8640
G1 X129.449 Y99.715 E-.40818
G1 X129.297 Y99.166 E-.13153
G1 X129.271 Y98.988 E-.04154
G1 X129.941 Y99.658 E-.21875
;WIPE_END
G1 Z.6 F720
G1 X120.263 Y95.464 F10800
G1 Z.2 F720
G1 E.8 F2100
M204 S800
;TYPE:Perimeter
;WIDTH:0.419999
G1 F1200
G1 X120.58 Y95.994 E.01936
G1 X120.824 Y96.56 E.01933
G1 X121.062 Y97.448 E.02883
G1 X121.116 Y98.01 E.0177
G1 X121.116 Y98.251 E.00756
G1 X121.088 Y98.873 E.01952
G1 X121 Y99.369 E.01579
G1 X120.833 Y99.91 E.01775
G1 X120.509 Y100.635 E.0249
G1 X120.178 Y101.135 E.0188
G1 X112.32 Y101.135 E.24638
G1 X112.093 Y100.808 E.01248
G1 X111.825 Y100.31 E.01773
G1 X111.616 Y99.783 E.01778
G1 X111.469 Y99.235 E.01779
G1 X111.387 Y98.675 E.01775
G1 X111.371 Y98.116 E.01753
G1 X111.472 Y97.257 E.02712
G1 X111.614 Y96.725 E.01726
G1 X111.952 Y95.939 E.02683
G1 X112.334 Y95.366 E.02159
G1 X120.187 Y95.366 E.24622
G1 X120.226 Y95.417 E.00201
M204 S1000
G1 X120.584 Y95.267 F10800
M204 S800
;TYPE:External perimeter
G1 F1200
G1 X120.922 Y95.835 E.02072
G1 X121.185 Y96.452 E.02103
G1 X121.435 Y97.393 E.03053
G1 X121.493 Y98.01 E.01943
G1 X121.493 Y98.711 E.02198
G1 X121.405 Y99.311 E.01901
G1 X121.248 Y99.899 E.01908
G1 X120.885 Y100.744 E.02884
G1 X120.594 Y101.217 E.01741
G1 X120.349 Y101.512 E.01202
G1 X112.229 Y101.512 E.2546
G1 X112.094 Y101.469 E.00444
G1 X111.771 Y101.006 E.0177
G1 X111.482 Y100.469 E.01912
G1 X111.257 Y99.901 E.01916
G1 X111.099 Y99.311 E.01915
G1 X111.011 Y98.708 E.01911
G1 X110.994 Y98.1 E.01907
G1 X111.1 Y97.186 E.02885
G1 X111.256 Y96.601 E.01898
G1 X111.619 Y95.759 E.02875
G1 X112.1 Y95.038 E.02718
G1 X112.173 Y94.988 E.00277
G1 X120.343 Y94.989 E.25616
G1 X120.545 Y95.221 E.00965
M204 S1000
G1 X120.513 Y95.661 F10800
;WIPE_START
G1 F8640
G1 X120.922 Y95.835 E-.16637
G1 X121.185 Y96.452 E-.15487
G1 X121.435 Y97.393 E-.22482
G1 X121.493 Y98.01 E-.1431
G1 X121.493 Y98.49 E-.11084
;WIPE_END
G1 Z.6 F720
G1 X120.779 Y97.004 F10800
G1 Z.2 F720
G1 E.8 F2100
M204 S800
;TYPE:Solid infill
;WIDTH:0.431365
G1 F1200
G1 X119.481 Y95.706 E.05929
G1 X118.932 Y95.706 E.01773
G1 X120.727 Y97.501 E.08199
G1 X120.777 Y97.842 E.01113
G1 X120.777 Y98.1 E.00833
G1 X118.382 Y95.706 E.10938
G1 X117.833 Y95.705 E.01773
G1 X120.777 Y98.649 E.13448
G1 X120.708 Y99.13 E.0157
G1 X117.283 Y95.705 E.15645
G1 X116.734 Y95.705 E.01773
G1 X120.596 Y99.567 E.17641
G1 X120.441 Y99.962 E.01371
G1 X116.185 Y95.705 E.19443
G1 X115.635 Y95.705 E.01776
G1 X120.276 Y100.346 E.21199
G1 X120.074 Y100.694 E.013
G1 X115.086 Y95.705 E.22787
G1 X114.536 Y95.705 E.01776
G1 X119.627 Y100.795 E.23252
G1 X119.077 Y100.795 E.01776
G1 X113.987 Y95.705 E.2325
G1 X113.438 Y95.705 E.01773
G1 X118.528 Y100.795 E.2325
G1 X117.978 Y100.795 E.01776
G1 X112.888 Y95.705 E.2325
G1 X112.516 Y95.705 E.01202
G1 X112.445 Y95.811 E.00412
G1 X117.429 Y100.795 E.22766
G1 X116.88 Y100.795 E.01773
G1 X112.232 Y96.147 E.21231
G1 X112.067 Y96.531 E.0135
G1 X116.33 Y100.795 E.19475
G1 X115.781 Y100.795 E.01773
M73 P4 R19
M73 Q4 S19
G1 X111.911 Y96.925 E.17677
G1 X111.801 Y97.364 E.01462
G1 X115.232 Y100.795 E.15672
G1 X114.682 Y100.795 E.01776
G1 X111.743 Y97.856 E.13425
G1 X111.711 Y98.131 E.00894
G1 X111.718 Y98.381 E.00808
G1 X114.133 Y100.795 E.11029
G1 X113.584 Y100.795 E.01773
G1 X111.776 Y98.988 E.08256
G1 X111.802 Y99.166 E.00581
G1 X111.954 Y99.715 E.0184
G1 X113.204 Y100.965 E.0571
M204 S1000
; stop printing object Edit LZI_04-07-23_002_1mm id:1 copy 0
; printing object Edit LZI_04-07-23_002_1mm id:2 copy 0
;WIPE_START
G1 F8640
G1 X111.954 Y99.715 E-.40818
G1 X111.802 Y99.166 E-.13153
G1 X111.776 Y98.988 E-.04154
G1 X112.446 Y99.658 E-.21875
;WIPE_END
G1 Z.6 F720
G1 X120.263 Y108.964 F10800
G1 Z.2 F720
G1 E.8 F2100
M204 S800
;TYPE:Perimeter
;WIDTH:0.419999
G1 F1200
G1 X120.58 Y109.494 E.01936
G1 X120.824 Y110.06 E.01933
G1 X121.062 Y110.948 E.02883
G1 X121.116 Y111.51 E.0177
G1 X121.116 Y111.751 E.00756
G1 X121.088 Y112.373 E.01952
G1 X121 Y112.869 E.01579
G1 X120.833 Y113.41 E.01775
G1 X120.509 Y114.135 E.0249
G1 X120.178 Y114.635 E.0188
G1 X112.32 Y114.635 E.24638
G1 X112.093 Y114.308 E.01248
G1 X111.825 Y113.81 E.01773
G1 X111.616 Y113.283 E.01778
G1 X111.469 Y112.735 E.01779
G1 X111.387 Y112.175 E.01775
G1 X111.371 Y111.616 E.01753
G1 X111.472 Y110.757 E.02712
G1 X111.614 Y110.225 E.01726
G1 X111.952 Y109.439 E.02683
G1 X112.334 Y108.866 E.02159
G1 X120.187 Y108.866 E.24622
G1 X120.226 Y108.917 E.00201
M204 S1000
